X:1
T:Zelda
C:Philippe Plard
M:6/8
L:1/8
Q:1/4=160
P:A2B2
K:Am
P:A
|: e2 A e2 A | fed e2 e | edc B2 B |1 Bcd c2 A :|2 BcB A3 |
P:B
|: ABc E2 E | ABc F2 F | ABc B2 B |1 dcB c2 A :|2 dcB A3 |
